X:1
T:Title
%%score { 1 | 2 }
L:1/8
Q:1/4=192
M:4/4
K:Ab
V:1 treble nm="Grand Piano"
V:2 bass 
V:1
 [CE][Ec][DB][CA] [DB]2 [CA]2 | [DF][FA][EG][DF] [CE]4 | EdcB e[Ec][CA][Ec] | [EB]6 z2 | %4
w: H.~R.~Christie * * * * *||||
 [CE][Ec][DB][CA] [DB]2 [CA]2 | [DF][FA][EG][DF] [CE]4 | EdcB A2 G2 | [CEA]6 z2 | c c2 c dcBA | %9
w: |||||
 [GB]6 z2 | [Ge] [Ge]2 d cBAG | [CEA]6 z2 | [A,DF] [A,FA]2 [A,DF] [A,FA]2 [A,EG][A,DF] | %13
w: ||||
 [A,CE] [A,EA]2 B c2 z2 | e[Ed][Ec][FB] [Ec]2 [DEB]2 | [CEA]6 z2 |] %16
w: |||
V:2
 [A,,A,][A,,A,][A,,A,][A,,A,] [A,,A,]2 [A,,A,]2 | [D,A,][D,A,][D,A,][D,A,] [A,,A,]4 | %2
 [E,G,][E,B,E][E,A,E][E,G,E] [A,,CE][A,,A,][A,,A,][A,,A,] | [E,G,]6 z2 | %4
 [A,,A,][A,,A,][A,,A,][A,,A,] [A,,A,]2 [A,,A,]2 | [D,A,][D,A,][D,A,][D,A,] [A,,A,]4 | %6
 [E,G,][E,G,E][E,A,E][E,B,E] [E,CE]2 [E,DE]2 | A,,6 z2 | [A,E] [A,E]2 [A,E] [B,E][A,E][G,E][F,CF] | %9
 [E,E]6 z2 | [E,B,] [E,B,]2 [E,G,E] [E,A,E][E,B,E][E,CE][E,DE] | A,,6 z2 | D, D,2 D, D,2 D,D, | %13
 A,, C,2 [E,G,E] [A,E]2 z2 | [A,,CE][B,,B,][C,A,][D,A,] [E,A,]2 E,2 | A,,6 z2 |] %16

